{ "compressionlevel":-1,
 "height":10,
 "infinite":false,
 "layers":[
        {
         "data":[1, 1, 1, 1, 1, 1, 1, 1, 1, 1,
            1, 1, 1, 1, 1, 1, 1, 1, 1, 1,
            1, 1, 1, 1, 1, 1, 1, 1, 1, 1,
            1, 1, 1, 1, 1, 1, 1, 1, 1, 1,
            1, 1, 1, 1, 1, 1, 1, 1, 1, 1,
            1, 1, 1, 1, 1, 1, 1, 1, 1, 1,
            1, 1, 1, 1, 1, 1, 1, 1, 1, 1,
            1, 1, 1, 1, 1, 1, 1, 1, 1, 1,
            1, 1, 1, 1, 1, 1, 1, 1, 1, 1,
            1, 1, 1, 1, 1, 1, 1, 1, 1, 1],
         "height":10,
         "id":1,
         "name":"Floor",
         "opacity":1,
         "type":"tilelayer",
         "visible":true,
         "width":10,
         "x":0,
         "y":0
        },
        {
         "data":[2, 2, 2, 2, 2, 2, 2, 2, 2, 2,
            2, 0, 0, 0, 0, 0, 0, 0, 0, 2,
            2, 0, 0, 0, 0, 0, 0, 0, 0, 2,
            2, 0, 0, 0, 0, 0, 0, 0, 0, 2,
            2, 0, 0, 0, 0, 0, 0, 0, 0, 2,
            2, 0, 0, 0, 0, 0, 0, 0, 0, 2,
            2, 0, 0, 0, 0, 0, 0, 0, 0, 2,
            2, 0, 0, 0, 0, 0, 0, 0, 0, 2,
            2, 0, 0, 0, 0, 0, 0, 0, 0, 2,
            2, 2, 2, 2, 2, 2, 2, 2, 2, 2],
         "height":10,
         "id":2,
         "name":"Walls",
         "opacity":1,
         "type":"tilelayer",
         "visible":true,
         "width":10,
         "x":0,
         "y":0
        },
        {
         "draworder":"topdown",
         "id":3,
         "name":"Collision",
         "objects":[
                {
                 "height":320,
                 "id":1,
                 "name":"left_wall",
                 "rotation":0,
                 "type":"",
                 "visible":true,
                 "width":32,
                 "x":0,
                 "y":0
                },
                {
                 "height":320,
                 "id":2,
                 "name":"right_wall",
                 "rotation":0,
                 "type":"",
                 "visible":true,
                 "width":32,
                 "x":288,
                 "y":0
                },
                {
                 "height":32,
                 "id":3,
                 "name":"top_wall",
                 "rotation":0,
                 "type":"",
                 "visible":true,
                 "width":256,
                 "x":32,
                 "y":0
                },
                {
                 "height":32,
                 "id":4,
                 "name":"bottom_wall",
                 "rotation":0,
                 "type":"",
                 "visible":true,
                 "width":256,
                 "x":32,
                 "y":288
                }
            ],
         "opacity":1,
         "type":"objectgroup",
         "visible":true,
         "x":0,
         "y":0
        },
        {
         "draworder":"topdown",
         "id":4,
         "name":"Spawn",
         "objects":[
                {
                 "height":0,
                 "id":5,
                 "name":"SpawnPoint",
                 "point":true,
                 "rotation":0,
                 "type":"",
                 "visible":true,
                 "width":0,
                 "x":160,
                 "y":160
                }],
         "opacity":1,
         "type":"objectgroup",
         "visible":true,
         "x":0,
         "y":0
        }],
 "nextlayerid":5,
 "nextobjectid":6,
 "orientation":"orthogonal",
 "renderorder":"right-down",
 "tiledversion":"1.10.2",
 "tileheight":32,
 "tilesets":[
        {
         "columns":2,
         "firstgid":1,
         "image":"cyber-tileset",
         "imageheight":32,
         "imagewidth":64,
         "margin":0,
         "name":"embedded-set",
         "spacing":0,
         "tilecount":2,
         "tileheight":32,
         "tilewidth":32
        }],
 "tilewidth":32,
 "type":"map",
 "version":"1.10",
 "width":10
}
